images/icons/links/instagramm.svg

<svg width="30" height="30" viewBox="0 0 30 30" fill="none" xmlns="http://www.w3.org/2000/svg">
<circle cx="15" cy="15" r="15" fill="url(#paint0_linear)"/>
<path d="M19.9356 9H10.8144C9.78461 9 9 9.78462 9 10.8144V19.9356C9 20.9654 9.78461 21.75 10.8144 21.75H19.9356C20.9654 21.75 21.75 20.9654 21.75 19.9356V10.8144C21.75 9.78462 20.9654 9 19.9356 9ZM15.375 19.2C17.4837 19.2 19.2 17.5327 19.2 15.5221C19.2 15.1788 19.151 14.7865 19.0529 14.4923H20.1317V19.6904C20.1317 19.9356 19.9356 20.1808 19.6413 20.1808H11.1087C10.8635 20.1808 10.6183 19.9846 10.6183 19.6904V14.4433H11.7462C11.6481 14.7865 11.599 15.1298 11.599 15.4731C11.55 17.5327 13.2663 19.2 15.375 19.2ZM15.375 17.7288C14.0019 17.7288 12.9231 16.65 12.9231 15.326C12.9231 14.0019 14.0019 12.9231 15.375 12.9231C16.7481 12.9231 17.8269 14.0019 17.8269 15.326C17.8269 16.699 16.7481 17.7288 15.375 17.7288ZM20.0827 12.4817C20.0827 12.776 19.8375 13.0212 19.5433 13.0212H18.1702C17.876 13.0212 17.6308 12.776 17.6308 12.4817V11.1577C17.6308 10.8635 17.876 10.6183 18.1702 10.6183H19.5433C19.8375 10.6183 20.0827 10.8635 20.0827 11.1577V12.4817Z" fill="white"/>
<defs>
<linearGradient id="paint0_linear" x1="6.375" y1="26.625" x2="26.25" y2="6" gradientUnits="userSpaceOnUse">
<stop stop-color="#EEA054"/>
<stop offset="0.502762" stop-color="#D64763"/>
<stop offset="1" stop-color="#B62A99"/>
</linearGradient>
</defs>
</svg>

<svg width="30" height="30" fill="none" xmlns="http://www.w3.org/2000/svg"><circle cx="15" cy="15" r="15" fill="url(#paint0_linear)"/><path d="M19.936 9h-9.122A1.78 1.78 0 009 10.814v9.122a1.78 1.78 0 001.814 1.814h9.122a1.78 1.78 0 001.814-1.814v-9.122A1.78 1.78 0 0019.936 9zm-4.561 10.2c2.109 0 3.825-1.667 3.825-3.678 0-.343-.049-.736-.147-1.03h1.079v5.198a.49.49 0 01-.49.49h-8.533a.491.491 0 01-.49-.49v-5.247h1.127a3.732 3.732 0 00-.147 1.03c-.049 2.06 1.667 3.727 3.776 3.727zm0-1.471c-1.373 0-2.452-1.079-2.452-2.403s1.079-2.403 2.452-2.403 2.452 1.079 2.452 2.403c0 1.373-1.079 2.403-2.452 2.403zm4.708-5.247c0 .294-.245.54-.54.54H18.17a.544.544 0 01-.54-.54v-1.324c0-.294.246-.54.54-.54h1.373c.294 0 .54.245.54.54v1.324z" fill="#fff"/><defs><linearGradient id="paint0_linear" x1="6.375" y1="26.625" x2="26.25" y2="6" gradientUnits="userSpaceOnUse"><stop stop-color="#EEA054"/><stop offset=".503" stop-color="#D64763"/><stop offset="1" stop-color="#B62A99"/></linearGradient></defs></svg>
